src/icons/svg/404.svg

<?xml version="1.0" encoding="UTF-8" standalone="no"?>
<svg width="128px" height="128px" viewBox="0 0 128 128" version="1.1" xmlns="http://www.w3.org/2000/svg" xmlns:xlink="http://www.w3.org/1999/xlink">
    <!-- Generator: Sketch 40 (33762) - http://www.bohemiancoding.com/sketch -->
    <title>404</title>
    <desc>Created with Sketch.</desc>
    <defs></defs>
    <g id="Page-1" stroke="none" stroke-width="1" fill="none" fill-rule="evenodd">
        <g id="404" fill="#000000">
            <path d="M121.717622,73.272441 L121.717622,83.2251968 C125.675244,75.6409446 127.916973,67.1748032 127.916973,58.2299212 C127.916973,26.0787402 99.272649,0 63.9584864,0 C28.6443244,0 0,26.0787402 0,58.2299212 C0,58.6330708 0.0276756756,59.0362204 0.0276756756,59.43937 L22.9984864,33.4866142 L36.3381622,33.4866142 L16.5777297,60.6740158 L22.9984864,60.6740158 L22.9984864,53.7700788 L36.7256216,34.2929134 L36.7256216,60.6740158 L36.7256216,73.272441 L36.7256216,83.653543 L22.9984864,83.653543 L22.9984864,73.272441 L2.1587027,73.272441 C8.108973,93.5559052 25.766054,109.480315 48.1556756,114.670866 C46.7165406,117.971654 42.5375136,125.933859 35.590919,127.344882 C26.9837838,129.108661 58.9491892,127.773228 81.7539462,114.166929 C99.272649,109.555905 113.691676,98.31811 121.523892,83.653543 L108.018162,83.653543 L108.018162,73.272441 L85.0196756,73.272441 L85.0196756,62.2866142 L85.0196756,60.6740158 L85.0196756,59.464567 L108.018162,33.4866142 L121.02573,33.4866142 L101.597405,60.6740158 L108.018162,60.6740158 L108.018162,53.2409448 L121.745297,33.83937 L121.745297,60.6992126 L121.745297,73.272441 L121.717622,73.272441 L121.717622,73.272441 L121.717622,73.272441 L121.717622,73.272441 Z M43.4784864,76.0944884 C42.8142702,74.6834644 42.4821622,73.1716538 42.4821622,71.5590554 L42.4821622,44.5480314 C42.4821622,42.935433 42.8142702,41.423622 43.4784864,40.0125984 C44.1427028,38.6015748 45.056,37.3669292 46.1907028,36.3338582 C47.3254054,35.3007874 48.6815136,34.4692914 50.2313514,33.864567 C51.7811892,33.2598424 53.4417298,32.9574804 55.212973,32.9574804 L66.504649,32.9574804 C68.2758918,32.9574804 69.9364326,33.2598424 71.48627,33.864567 C73.0084326,34.4692914 74.3368646,35.2755906 75.4715674,36.2834646 L63.2112432,52.5858268 L63.2112432,49.688189 C63.2112432,49.0834646 62.9898378,48.5795276 62.547027,48.176378 C62.1042162,47.7732284 61.5507028,47.5716536 60.8864864,47.5716536 C60.2222702,47.5716536 59.6687568,47.7732284 59.225946,48.176378 C58.7831352,48.5795276 58.5617298,49.0834646 58.5617298,49.688189 L58.5617298,58.7590552 L44.364108,77.6062996 C44.032,77.127559 43.7275676,76.6236218 43.4784864,76.0944884 L43.4784864,76.0944884 L43.4784864,76.0944884 L43.4784864,76.0944884 L43.4784864,76.0944884 Z M79.2077836,71.5590554 C79.2077836,73.1716538 78.8756756,74.6834644 78.2114592,76.0944884 C77.5472436,77.5055116 76.6339462,78.7401574 75.4992436,79.7732282 C74.3645408,80.8062996 73.0084326,81.6377952 71.4585946,82.2425196 C69.9087564,82.8472442 68.2482164,83.1496064 66.4769728,83.1496064 L55.1852972,83.1496064 C53.414054,83.1496064 51.7535136,82.8472442 50.2036756,82.2425196 C48.6538378,81.6377952 47.2977298,80.8062996 46.163027,79.7732282 C45.6648648,79.3196852 45.1943784,78.790551 44.7792432,78.2614176 L58.5063784,60.0440944 L58.5063784,66.418898 C58.5063784,67.0236218 58.7277838,67.527559 59.1705946,67.9307084 C59.6134054,68.3338586 60.166919,68.535433 60.8311352,68.535433 C61.4953514,68.535433 62.0488648,68.3338586 62.4916756,67.9307084 C62.9344864,67.527559 63.155892,67.0236218 63.155892,66.418898 L63.155892,53.8708662 L75.96973,36.8377952 C76.8830272,37.7700788 77.63027,38.8283464 78.1837836,40.0125984 C78.848,41.423622 79.1801082,42.935433 79.1801082,44.5480314 L79.1801082,71.5590554 L79.2077836,71.5590554 L79.2077836,71.5590554 L79.2077836,71.5590554 L79.2077836,71.5590554 Z" id="Shape"></path>
        </g>
    </g>
</svg>

<svg width="128" height="128" xmlns="http://www.w3.org/2000/svg"><path d="M121.718 73.272v9.953c3.957-7.584 6.199-16.05 6.199-24.995C127.917 26.079 99.273 0 63.958 0 28.644 0 0 26.079 0 58.23c0 .403.028.806.028 1.21l22.97-25.953h13.34l-19.76 27.187h6.42V53.77l13.728-19.477v49.361H22.998V73.272H2.158c5.951 20.284 23.608 36.208 45.998 41.399-1.44 3.3-5.618 11.263-12.565 12.674-8.607 1.764 23.358.428 46.163-13.178 17.519-4.611 31.938-15.849 39.77-30.513h-13.506V73.272H85.02V59.464l22.998-25.977h13.008l-19.429 27.187h6.421v-7.433l13.727-19.402v39.433h-.027zm-78.24 2.822a10.516 10.516 0 0 1-.996-4.535V44.548c0-1.613.332-3.124.996-4.535a11.66 11.66 0 0 1 2.713-3.68c1.134-1.032 2.49-1.864 4.04-2.468 1.55-.605 3.21-.908 4.982-.908h11.292c1.77 0 3.431.303 4.981.908 1.522.604 2.85 1.41 3.986 2.418l-12.26 16.303v-2.898a1.96 1.96 0 0 0-.665-1.512c-.443-.403-.996-.604-1.66-.604-.665 0-1.218.201-1.661.604a1.96 1.96 0 0 0-.664 1.512v9.071L44.364 77.606a10.556 10.556 0 0 1-.886-1.512zm35.73-4.535c0 1.613-.332 3.124-.997 4.535a11.66 11.66 0 0 1-2.712 3.68c-1.134 1.032-2.49 1.864-4.04 2.469-1.55.604-3.21.907-4.982.907H55.185c-1.77 0-3.431-.303-4.981-.907-1.55-.605-2.906-1.437-4.041-2.47a12.49 12.49 0 0 1-1.384-1.512l13.727-18.217v6.375c0 .605.222 1.109.665 1.512.442.403.996.604 1.66.604.664 0 1.218-.201 1.66-.604a1.96 1.96 0 0 0 .665-1.512V53.87L75.97 36.838c.913.932 1.66 1.99 2.214 3.175.664 1.41.996 2.922.996 4.535v27.011h.028z" fill-rule="evenodd"/></svg>
